icons/Logos/zcool-line.svg

<svg viewBox="0 0 24 24" xmlns="http://www.w3.org/2000/svg"><path d="M8.26158 8.26022C5.8379 8.80266 4.00098 11.2081 4.00098 13.9355C4.00098 17.1958 6.64362 19.8387 9.90338 19.8387C12.7548 19.8387 15.1852 17.8007 15.7043 15.033C15.8238 14.3962 16.2442 13.8568 16.8326 13.5855C17.3154 13.3628 17.7433 13.1123 18.1174 12.8418C17.2537 12.2391 16.9306 10.9804 17.6467 10.0078C18.2274 9.21897 18.6973 8.34856 19.0382 7.35686C17.9545 7.86679 16.7372 8.29346 15.3703 8.62203C14.1085 8.92532 12.9778 7.98421 12.9039 6.80753C11.7237 7.38016 10.2337 7.81884 8.26158 8.26022ZM19.2572 11.1935C20.4234 11.1935 21.1735 10.7697 22.001 10.6071C21.6763 12.0553 20.5 14.0968 17.67 15.4017C16.9827 19.066 13.7668 21.8387 9.90338 21.8387C5.539 21.8387 2.00098 18.3003 2.00098 13.9355C2.00098 10.2901 4.46846 7.05968 7.82477 6.30851C11.746 5.4309 13.5286 4.74194 14.9016 2C15.5905 3.33333 15.591 4.89247 14.9029 6.67742C17.718 6.00736 19.9758 4.82457 21.6763 3.12903C21.6763 7.93116 19.8537 10.315 19.2572 11.1935ZM13.4176 15.1256C14.001 15.2715 14.001 15.9581 14.001 16.1466V17.1675C14.001 17.7294 13.6593 17.9405 13.1574 17.9405H7.7428C7.26775 17.8541 7.00863 17.595 7.00863 17.1631V16.2129C7.00863 15.7378 7.22456 15.3922 7.44049 15.1331L10.5931 11.7642H7.52686C7.22456 11.7642 7.00863 11.5483 7.00863 11.1595C6.96544 10.4253 7.095 9.25914 7.65642 9C7.7428 9 7.7428 9.12957 7.7428 9.17276C7.65642 9.34553 7.7428 9.4751 7.95873 9.4751H11.8455C12.7092 9.4751 13.2275 9.4751 13.5298 9.38872C13.6593 9.34553 13.7457 9.38872 13.7025 9.51829C13.6161 9.82063 13.6593 10.1662 13.6593 10.4685C13.6593 11.4619 13.6593 11.8506 12.882 12.628L10.2044 15.565L13.0531 15.5632C13.3696 15.5632 13.4176 15.4173 13.4176 15.1256Z"/></svg>

<svg xmlns="http://www.w3.org/2000/svg" viewBox="0 0 24 24">
    <g>
        <path fill="none" d="M0 0h24v24H0z"/>
        <path fill-rule="nonzero" d="M8.26 8.26C5.838 8.803 4 11.208 4 13.935a5.903 5.903 0 0 0 11.703 1.098 2 2 0 0 1 1.129-1.448c.482-.222.91-.473 1.284-.743-.863-.603-1.186-1.862-.47-2.834a9.796 9.796 0 0 0 1.391-2.651 19.04 19.04 0 0 1-3.668 1.265c-1.261.303-2.392-.638-2.466-1.814-1.18.572-2.67 1.01-4.642 1.452zm10.996 2.934c1.166 0 1.917-.424 2.744-.587-.325 1.448-1.5 3.49-4.33 4.795A7.903 7.903 0 0 1 2 13.936C2 10.29 4.467 7.06 7.824 6.308 11.745 5.43 13.528 4.742 14.9 2c.689 1.333.689 2.892 0 4.677 2.816-.67 5.074-1.852 6.774-3.548 0 4.802-1.822 7.186-2.419 8.065zm-5.84 3.932c.584.145.584.832.584 1.02v1.022c0 .561-.342.773-.844.773H7.742c-.475-.087-.734-.346-.734-.778v-.95c0-.475.216-.82.432-1.08l3.152-3.369H7.526c-.302 0-.518-.216-.518-.604-.044-.735.086-1.9.647-2.16.087 0 .087.13.087.173-.087.173 0 .302.216.302h3.887c.863 0 1.381 0 1.684-.086.13-.043.216 0 .173.13-.087.302-.044.647-.044.95 0 .993 0 1.382-.777 2.159l-2.678 2.937 2.85-.002c.316 0 .364-.146.364-.437z"/>
    </g>
</svg>
